workspace/modules/rust_game_server/meta/icon.svg

<svg viewBox="-102.698 -40.679 162.406 166.165" width="162.406" height="166.165" xmlns="http://www.w3.org/2000/svg"><path d="M-102.698-40.679H59.708v166.165h-162.406z" fill="#c5412b"/><path d="M-80.846 61.528l-.167-33.888s18.084 6.442 30.44 6.655l.2 21.718s-14.542-.005-30.08 5.772"/><path style="marker:none" d="M-44.198 34.096l9.96-.2.2 22.117H-43.8zm26.096 4.282l-6.431 6.862 6.845 6.942 6.337-7.183zm-9.762-20.534l21.393-.1.2 10.349h-21.295zM-.003 48.192l-15.225 15.125 7.463 7.263L6.563 56.013z" color="#000" overflow="visible"/><path d="M-34.051-19.511l33.888-.168s-6.74 18.98-6.953 31.334l-20.624.1s-.791-15.337-6.568-30.875m72.892 96.694l-23.78 24.144S6.101 83.555-2.509 74.691l14.473-14.694s11.433 10.256 26.523 17.117"/></svg>

<?xml version="1.0" encoding="utf-8"?>
<svg viewBox="-102.698 -40.679 162.406 166.165" width="162.406" height="166.165" xmlns="http://www.w3.org/2000/svg">
  <path d="M -102.698 -40.679 L 59.708 -40.679 L 59.708 125.486 L -102.698 125.486 Z" fill="#c5412b"/>
  <path d="M -80.846 61.528 L -81.013 27.64 C -81.013 27.64 -62.929 34.082 -50.573 34.295 L -50.373 56.013 C -50.373 56.013 -64.915 56.008 -80.453 61.785"/>
  <path style="marker:none" d="M -44.198 34.096 L -34.238 33.896 L -34.038 56.013 L -43.8 56.013 Z M -18.102 38.378 L -24.533 45.24 L -17.688 52.182 L -11.351 44.999 Z M -27.864 17.844 L -6.471 17.744 L -6.271 28.093 L -27.566 28.093 Z M -0.003 48.192 L -15.228 63.317 L -7.765 70.58 L 6.563 56.013 Z" color="#000" overflow="visible"/>
  <path d="M -34.051 -19.511 L -0.163 -19.679 C -0.163 -19.679 -6.903 -0.699 -7.116 11.655 L -27.74 11.755 C -27.74 11.755 -28.531 -3.582 -34.308 -19.12 M 38.584 77.574 L 14.804 101.718 C 14.804 101.718 6.101 83.555 -2.509 74.691 L 11.964 59.997 C 11.964 59.997 23.397 70.253 38.487 77.114"/>
</svg>
